svg/file/folder_security_line.svg

<?xml version="1.0" encoding="UTF-8"?>
<svg width="24px" height="24px" viewBox="0 0 24 24" version="1.1" xmlns="http://www.w3.org/2000/svg" xmlns:xlink="http://www.w3.org/1999/xlink">
    <title>folder_security_line</title>
    <g id="页面-1" stroke="none" stroke-width="1" fill="none" fill-rule="evenodd">
        <g id="File" transform="translate(-96.000000, -384.000000)" fill-rule="nonzero">
            <g id="folder_security_line" transform="translate(96.000000, 384.000000)">
                 <path d="M24,0 L24,24 L0,24 L0,0 L24,0 Z M12.5934901,23.257841 L12.5819402,23.2595131 L12.5108777,23.2950439 L12.4918791,23.2987469 L12.4918791,23.2987469 L12.4767152,23.2950439 L12.4056548,23.2595131 C12.3958229,23.2563662 12.3870493,23.2590235 12.3821421,23.2649074 L12.3780323,23.275831 L12.360941,23.7031097 L12.3658947,23.7234994 L12.3769048,23.7357139 L12.4804777,23.8096931 L12.4953491,23.8136134 L12.4953491,23.8136134 L12.5071152,23.8096931 L12.6106902,23.7357139 L12.6232938,23.7196733 L12.6232938,23.7196733 L12.6266527,23.7031097 L12.609561,23.275831 C12.6075724,23.2657013 12.6010112,23.2592993 12.5934901,23.257841 L12.5934901,23.257841 Z M12.8583906,23.1452862 L12.8445485,23.1473072 L12.6598443,23.2396597 L12.6498822,23.2499052 L12.6498822,23.2499052 L12.6471943,23.2611114 L12.6650943,23.6906389 L12.6699349,23.7034178 L12.6699349,23.7034178 L12.678386,23.7104931 L12.8793402,23.8032389 C12.8914285,23.8068999 12.9022333,23.8029875 12.9078286,23.7952264 L12.9118235,23.7811639 L12.8776777,23.1665331 C12.8752882,23.1545897 12.8674102,23.1470016 12.8583906,23.1452862 L12.8583906,23.1452862 Z M12.1430473,23.1473072 C12.1332178,23.1423925 12.1221763,23.1452606 12.1156365,23.1525954 L12.1099173,23.1665331 L12.0757714,23.7811639 C12.0751323,23.7926639 12.0828099,23.8018602 12.0926481,23.8045676 L12.108256,23.8032389 L12.3092106,23.7104931 L12.3186497,23.7024347 L12.3186497,23.7024347 L12.3225043,23.6906389 L12.340401,23.2611114 L12.337245,23.2485176 L12.337245,23.2485176 L12.3277531,23.2396597 L12.1430473,23.1473072 Z" id="MingCute" fill-rule="nonzero"></path>
                <path d="M17.6838,14.0513 C17.84796,13.99658 18.022872,13.985636 18.1913328,14.018468 L18.3162,14.0513 L21.3162,15.0513 C21.6874727,15.1750273 21.9488281,15.502143 21.9932789,15.8839619 L22,16 L22,17.6714 C22,19.8862 20.3347,21.7467 18.1335,21.9913 C18.0448,22.0012 17.9552,22.0012 17.8665,21.9913 C15.7363065,21.7545903 14.1079964,20.0045508 14.0051607,17.8845871 L14,17.6714 L14,16 C14,15.6087273 14.2276033,15.2572893 14.5758227,15.0943711 L14.6838,15.0513 L17.6838,14.0513 Z M9.51938,3 C10.066148,3 10.5863318,3.2237058 10.9615564,3.61430643 L11.0811,3.75061 L12.4806,5.5 L20,5.5 C21.0543909,5.5 21.9181678,6.31587733 21.9945144,7.35073759 L22,7.5 L22,13 L20,13 L20,7.5 L12.4806,7.5 C11.93385,7.5 11.413668,7.2762942 11.0384436,6.88569357 L10.9189,6.74939 L9.51938,5 L4,5 L4,19 L12,19 L12,21 L4,21 C2.94563773,21 2.08183483,20.18415 2.00548573,19.1492661 L2,19 L2,5 C2,3.94563773 2.81587733,3.08183483 3.85073759,3.00548573 L4,3 L9.51938,3 Z M18,16.0541 L16,16.7208 L16,17.6714 C16,18.8376 16.8552,19.8219 18,19.9922 C19.0902857,19.8300095 19.9178957,18.9294971 19.9942434,17.8366943 L20,17.6714 L20,16.7208 L18,16.0541 Z" id="形状" fill="#09244B"></path>
            </g>
        </g>
    </g>
</svg>

<svg xmlns="http://www.w3.org/2000/svg" width="24" height="24"><g fill="none" fill-rule="nonzero"><path d="M24 0v24H0V0h24ZM12.593 23.258l-.011.002-.071.035-.02.004-.014-.004-.071-.035c-.01-.004-.019-.001-.024.005l-.004.01-.017.428.005.02.01.013.104.074.015.004.012-.004.104-.074.012-.016.004-.017-.017-.427c-.002-.01-.009-.017-.017-.018Zm.265-.113-.013.002-.185.093-.01.01-.003.011.018.43.005.012.008.007.201.093c.012.004.023 0 .029-.008l.004-.014-.034-.614c-.003-.012-.01-.02-.02-.022Zm-.715.002a.023.023 0 0 0-.027.006l-.006.014-.034.614c0 .012.007.02.017.024l.015-.002.201-.093.01-.008.004-.011.017-.43-.003-.012-.01-.01-.184-.092Z"/><path fill="#09244B" d="M17.684 14.051a1 1 0 0 1 .507-.033l.125.033 3 1a1 1 0 0 1 .677.833L22 16v1.671a4.346 4.346 0 0 1-3.866 4.32c-.09.01-.179.01-.268 0a4.347 4.347 0 0 1-3.86-4.106L14 17.67V16a1 1 0 0 1 .576-.906l.108-.043 3-1ZM9.519 3a2 2 0 0 1 1.443.614l.12.137L12.48 5.5H20a2 2 0 0 1 1.995 1.85L22 7.5V13h-2V7.5h-7.52a2 2 0 0 1-1.442-.614l-.12-.137L9.52 5H4v14h8v2H4a2 2 0 0 1-1.995-1.85L2 19V5a2 2 0 0 1 1.85-1.995L4 3h5.52ZM18 16.054l-2 .667v.95c0 1.167.855 2.15 2 2.321a2.347 2.347 0 0 0 1.994-2.155L20 17.67v-.95l-2-.667Z"/></g></svg>
